X: 57
T:Go to Berwick, Johnny
M:3/2
L:1/8
C:Trad. Arr. Martin Dunne
R:Hornpipe
Z:Richard Moon
K:F
c2 F2 F2 c2 dcBA|c2 F2 F2 c2 A2 f2|c2 F2 F2 c2 dcBA|B2 G2 G2 A2 B2 d2:||
!
f3 g f2 c2 ABcA|f3 g f2 c2 f2 a2|f3 g f2 c2 ABcA|B2 G2 G2 A2 B2 d2|
f3 g f2 c2 ABcA|f3 g f2 c2 f2 a2|agfe gfed fedc|B2 G2 G2 A2 B2 d2||

